app/icons/svg/ic_time.svg

<?xml version="1.0" encoding="UTF-8"?>
<svg width="24px" height="24px" viewBox="0 0 24 24" version="1.1" xmlns="http://www.w3.org/2000/svg" xmlns:xlink="http://www.w3.org/1999/xlink">
    <title>Icons/IXT/24dp/ic_time</title>
    <g id="Icons/IXT/24dp/ic_time" stroke="none" stroke-width="1" fill="none" fill-rule="evenodd">
        <g id="ic_time">
            <rect id="Container" x="0" y="0" width="24" height="24"></rect>
            <path d="M17,13 L17,15 L7,15 L7,13 L17,13 Z M19,5 C20.1030006,5 21,5.89699984 21,7 L21,19 C21,20.1030006 20.1030006,21 19,21 L5,21 C3.89699984,21 3,20.1030006 3,19 L3,7 C3,5.89699984 3.89699984,5 5,5 L7,5 L7,3 L9,3 L9,5 L15,5 L15,3 L17,3 L17,5 L19,5 Z M5,19 L19.0020008,19 L19.0005722,11 L5,11 L5,19 Z M5,9 L19,9 L19,7 L5,7 L5,9 L5,9 Z" id="calendar-/-calendar_week" fill="#454545"></path>
        </g>
    </g>
</svg>

<svg xmlns="http://www.w3.org/2000/svg" viewBox="0 0 24 24"><g fill="none" fill-rule="evenodd"><path d="M0 0h24v24H0z"/><path fill="#454545" d="M17 13v2H7v-2h10zm2-8c1.103 0 2 .897 2 2v12c0 1.103-.897 2-2 2H5c-1.103 0-2-.897-2-2V7c0-1.103.897-2 2-2h2V3h2v2h6V3h2v2h2zM5 19h14.002l-.001-8H5v8zM5 9h14V7H5v2z"/></g></svg>
